src/front_assets/svg/home-active.svg

<svg viewBox="0 0 32 32" fill="none" xmlns="http://www.w3.org/2000/svg">
<path fill-rule="evenodd" clip-rule="evenodd" d="M26.9167 27.9136V10.3487L16.5036 4.25261L6.08333 10.3948V27.9136H11.6389V21.0368C11.6389 19.3084 13.038 17.9072 14.7639 17.9072H18.2361C19.962 17.9072 21.3611 19.3084 21.3611 21.0368V27.9136H26.9167ZM27.9583 30C28.5336 30 29 29.5329 29 28.9568V9.75018C29 9.37949 28.8036 9.03665 28.484 8.84957L17.0275 2.14259C16.7018 1.95191 16.2986 1.95251 15.9734 2.14417L4.51329 8.89932C4.19525 9.08679 4 9.42878 4 9.79835V28.9568C4 29.5329 4.46637 30 5.04167 30H12.6805C13.2558 30 13.7222 29.5329 13.7222 28.9568V21.0368C13.7222 20.4606 14.1886 19.9936 14.7639 19.9936H18.2361C18.8114 19.9936 19.2778 20.4606 19.2778 21.0368V28.9568C19.2778 29.5329 19.7442 30 20.3195 30H27.9583Z" fill="#dc2626"/>
</svg>

<svg xmlns="http://www.w3.org/2000/svg" fill="none" viewBox="0 0 32 32"><path fill="#dc2626" fill-rule="evenodd" d="M26.917 27.914V10.349L16.504 4.253l-10.42 6.142v17.519h5.555v-6.877c0-1.729 1.399-3.13 3.125-3.13h3.472a3.127 3.127 0 0 1 3.125 3.13v6.877zM27.958 30c.576 0 1.042-.467 1.042-1.043V9.75c0-.37-.196-.713-.516-.9L17.027 2.143a1.04 1.04 0 0 0-1.054.001L4.513 8.9c-.318.188-.513.53-.513.9v19.158C4 29.533 4.466 30 5.042 30h7.639c.575 0 1.041-.467 1.041-1.043v-7.92c0-.576.467-1.043 1.042-1.043h3.472c.575 0 1.042.467 1.042 1.043v7.92c0 .576.466 1.043 1.042 1.043z" clip-rule="evenodd"/></svg>
